static/icons/admin.svg

<svg width="120" height="80" viewBox="0 0 120 80" fill="none" xmlns="http://www.w3.org/2000/svg">
<path d="M77.4613 47.2935C75.0952 46.0056 72.4295 45.3467 69.7339 45.3467H47.1806C37.4763 45.3766 29.5991 53.8528 29.5991 64.3357V71.5539H71.1716L77.4613 47.2935Z" fill="#9FEFDE"/>
<path d="M58.0827 57.1475C58.7278 57.1475 59.2508 56.6245 59.2508 55.9794C59.2508 55.3343 58.7278 54.8113 58.0827 54.8113C57.4375 54.8113 56.9146 55.3343 56.9146 55.9794C56.9146 56.6245 57.4375 57.1475 58.0827 57.1475Z" fill="#323C6B"/>
<path d="M58.0827 62.8679C58.7278 62.8679 59.2508 62.345 59.2508 61.6998C59.2508 61.0547 58.7278 60.5317 58.0827 60.5317C57.4375 60.5317 56.9146 61.0547 56.9146 61.6998C56.9146 62.345 57.4375 62.8679 58.0827 62.8679Z" fill="#323C6B"/>
<path d="M58.0827 68.5887C58.7278 68.5887 59.2508 68.0657 59.2508 67.4205C59.2508 66.7754 58.7278 66.2524 58.0827 66.2524C57.4375 66.2524 56.9146 66.7754 56.9146 67.4205C56.9146 68.0657 57.4375 68.5887 58.0827 68.5887Z" fill="#323C6B"/>
<path d="M71.1715 72.1528H29.599C29.2696 72.1528 29 71.8833 29 71.5538V64.3356C29 53.5532 37.1468 44.7776 47.1805 44.7776H69.7338C72.5193 44.7776 75.2748 45.4665 77.7308 46.7843C77.9704 46.9041 78.0902 47.2036 78.0303 47.4732L71.7106 71.7335C71.6507 71.9731 71.441 72.1528 71.1715 72.1528ZM30.1981 70.9548H70.6922L76.7724 47.6229C74.5859 46.5447 72.1898 45.9756 69.7338 45.9756H47.1805C37.8057 45.9756 30.1981 54.2122 30.1981 64.3356V70.9548Z" fill="#244583"/>
<path d="M44.5749 25.6089C44.5749 25.6089 41.43 25.3394 40.3817 27.4659C39.3334 29.5925 41.9092 35.0436 45.0541 34.774" fill="#EBECE9"/>
<path d="M44.8143 35.373C43.2269 35.2232 41.7893 34.3247 41.0105 32.917C39.8424 31.2397 39.0936 28.7238 39.8424 27.1663C41.0704 24.6804 44.4849 24.9499 44.6346 24.9799C44.9641 25.0098 45.2037 25.3093 45.1738 25.6388C45.1438 25.9683 44.8443 26.2079 44.5148 26.1779C44.4849 26.1779 41.7593 25.9683 40.9207 27.7054C40.4415 28.6639 40.9506 30.7006 41.9989 32.2281C42.598 33.3363 43.7361 34.0851 44.9941 34.145C45.3235 34.115 45.623 34.3546 45.653 34.6841C45.6829 35.0136 45.4433 35.3131 45.1139 35.343C45.024 35.373 44.9342 35.373 44.8143 35.373Z" fill="#244583"/>
<path d="M71.9504 25.5491C71.9504 25.5491 75.0953 25.2795 76.1436 27.4061C77.1919 29.5326 74.6161 34.9838 71.4712 34.7142" fill="#EBECE9"/>
<path d="M71.6808 35.3431C71.591 35.3431 71.5011 35.3431 71.4113 35.3431C71.0818 35.3131 70.8422 35.0136 70.8722 34.6842C70.9021 34.3547 71.2016 34.1151 71.5311 34.145C72.789 34.0851 73.9272 33.3663 74.5262 32.2281C75.6045 30.6707 76.0837 28.634 75.6045 27.7055C74.7359 25.9683 72.0403 26.178 72.0103 26.178C71.6808 26.2079 71.3813 25.9683 71.3514 25.6389C71.3214 25.3094 71.561 25.0099 71.8905 24.9799C72.0403 24.9799 75.4547 24.7104 76.6827 27.1664C77.4315 28.6939 76.6528 31.2098 75.5146 32.917C74.7059 34.2648 73.2683 35.1933 71.6808 35.3431Z" fill="#244583"/>
<path d="M67.0082 40.2849L67.8169 45.3766L58.4422 50.4983L49.0674 45.3766L49.8461 40.4946L67.0082 40.2849Z" fill="#FCD462"/>
<path d="M58.4422 51.0974C58.3524 51.0974 58.2326 51.0674 58.1427 51.0375L48.7679 45.9159C48.6182 45.826 48.5283 45.7062 48.4684 45.5564C48.4385 45.4666 48.4385 45.3767 48.4385 45.2869L49.2172 40.4049C49.2771 40.1053 49.5167 39.8957 49.8162 39.8957L66.9484 39.686C67.2479 39.686 67.5175 39.8957 67.5474 40.1952L68.3561 45.2869C68.3561 45.3468 68.3561 45.4067 68.3561 45.4666C68.3262 45.6463 68.2063 45.826 68.0566 45.9159L58.6818 51.0375C58.6519 51.0674 58.562 51.0974 58.4422 51.0974ZM49.7563 45.0473L58.4722 49.8095L67.188 45.0473L66.5291 40.8841L50.4153 41.0638L49.7563 45.0473Z" fill="#323C6B"/>
<path d="M37.8358 24.2911C37.5662 24.2911 37.3266 24.1114 37.2667 23.8418C36.5778 21.4158 36.2184 18.9298 36.1885 16.4139C36.1885 16.0844 36.458 15.7849 36.7875 15.755C37.087 15.725 37.3566 15.9646 37.3865 16.2641V16.2941V16.4139C37.4165 18.81 37.7759 21.2061 38.4348 23.5423C38.5247 23.8718 38.345 24.2012 38.0155 24.2911C37.9556 24.2911 37.8957 24.2911 37.8358 24.2911Z" fill="#EBECE9"/>
<path d="M37.117 14.3473C37.0871 14.3473 37.0571 14.3473 36.9972 14.3473C36.6678 14.2874 36.4581 13.9879 36.518 13.6584L36.548 13.4188C36.6079 13.1193 36.6378 12.8198 36.7277 12.5502C36.7876 12.2208 37.117 12.0111 37.4465 12.1009C37.776 12.1608 37.9856 12.4903 37.8958 12.8198C37.8359 13.0893 37.776 13.3589 37.746 13.6285L37.6861 13.8681C37.6562 14.1376 37.3866 14.3473 37.117 14.3473Z" fill="#EBECE9"/>
<path d="M72.6093 29.0832C72.6093 34.1749 69.704 39.7758 65.391 43.4597C63.9533 44.6578 62.1263 45.3167 60.2693 45.2867H56.4356C54.5486 45.2867 52.7515 44.6578 51.3139 43.4597C47.3304 40.1651 44.7845 35.4628 44.1555 30.3412V30.2813C44.3951 25.0398 44.3652 21.6554 46.4019 18.1511C50.026 19.5288 54.0395 19.2892 57.4539 17.4922C63.1746 14.4372 66.02 14.1077 68.5958 16.384C71.1716 18.6303 72.6093 29.0832 72.6093 29.0832Z" fill="#EBECE9"/>
<path d="M72.6091 29.0832C72.6091 34.1749 69.7038 39.7758 65.3908 43.4597C63.9532 44.6578 62.1561 45.3167 60.2692 45.3167H56.4354C54.9079 45.3167 53.4403 44.8974 52.1523 44.0887C52.6016 44.1486 53.0209 44.2085 53.4702 44.2085H57.3339C59.2209 44.2085 61.0179 43.5795 62.4556 42.3515C66.7686 38.6676 69.6739 33.0667 69.6739 27.975C69.6739 27.975 68.2362 17.5221 65.6604 15.2458C65.5406 15.126 65.3908 15.0062 65.2411 14.9164C66.499 14.9763 67.6971 15.4855 68.6256 16.384C71.1714 18.6303 72.6091 29.0832 72.6091 29.0832Z" fill="#C1C1C1"/>
<path d="M72.6092 29.0832C72.6092 29.0832 71.1716 18.6303 68.5957 16.354C66.0499 14.0777 63.1745 14.4072 57.4538 17.4622C54.0394 19.2592 49.996 19.4989 46.4018 18.1211C44.3651 21.6254 44.425 25.0099 44.1555 30.2513V30.3112C42.3883 25.9982 40.3816 21.266 40.3816 16.1443C40.5014 13.6285 41.1903 11.1425 42.3584 8.89618C42.3584 8.89618 42.3584 8.86623 42.4183 8.80633C43.3767 7.09912 45.5332 6.47015 47.2704 7.36868C47.2704 7.36868 53.1409 -2.18571 65.4808 1.43837C65.5108 1.43837 65.5407 1.46832 65.5707 1.46832C70.9619 3.26539 74.8556 7.99765 75.5744 13.6285C76.2932 18.0612 75.4246 25.2495 72.6092 29.0832Z" fill="#C1C1C1"/>
<path d="M44.1556 30.9102C43.916 30.9102 43.7063 30.7904 43.6165 30.5807L43.4368 30.1315C41.7296 25.9383 39.7827 21.206 39.7827 16.1443C39.9025 13.5086 40.6214 10.9628 41.8194 8.62661L41.8793 8.5068C42.8977 6.67979 45.0841 5.87111 47.0309 6.61989C48.3787 4.76292 54.5188 -2.42533 65.6307 0.839332C65.6607 0.839332 65.8104 0.899234 65.8104 0.929185C71.3814 2.78615 75.4248 7.69812 76.1436 13.5386C76.9223 18.2708 75.9639 25.519 73.0886 29.4426C72.9089 29.7121 72.5195 29.772 72.2499 29.5624C72.1301 29.4725 72.0403 29.3228 72.0103 29.1431C71.621 26.2977 70.1534 18.5404 68.1766 16.7733C65.8703 14.7366 63.2346 15.0361 57.7236 17.9713C54.3091 19.7684 50.2956 20.0979 46.6416 18.8699C45.1141 21.7751 44.9643 24.6504 44.7846 28.9334L44.7247 30.3112C44.7247 30.6107 44.515 30.8503 44.2155 30.9102C44.2155 30.9102 44.1856 30.9102 44.1556 30.9102ZM45.5034 7.54837C44.4252 7.60827 43.4368 8.17734 42.8977 9.13577C41.7595 11.3222 41.1006 13.7183 40.9508 16.2042C41.1305 20.1278 42.0291 24.0214 43.6464 27.6156C43.8261 23.7818 44.1257 20.8766 45.8329 17.8815C45.9826 17.6119 46.3121 17.5221 46.5817 17.6419C50.0261 18.9298 53.8598 18.6902 57.1245 16.9829C63.1148 13.7782 66.1998 13.5086 68.9253 15.9347C71.0519 17.7916 72.3698 24.291 72.8789 27.4059C74.8258 23.1229 75.5446 18.3906 74.8857 13.7183C74.1968 8.29714 70.4529 3.74458 65.2713 2.03737C65.2413 2.03737 65.1515 1.97747 65.1215 1.97747C53.5004 -1.4669 47.8097 7.57832 47.7498 7.66817C47.6 7.93773 47.2705 8.02758 47.001 7.90778C46.5218 7.66817 46.0126 7.54837 45.5034 7.54837Z" fill="#244583"/>
<path d="M60.2994 45.8858H56.4357C54.429 45.8858 52.4821 45.1969 50.9247 43.909C46.8213 40.4946 44.1856 35.6725 43.5566 30.3712C43.5566 30.3113 43.5566 30.2813 43.5566 30.2214L43.6165 28.8437C43.8262 24.351 43.946 21.1163 45.8629 17.8217C46.0126 17.5521 46.3421 17.4623 46.6117 17.5821C50.0561 18.87 53.8898 18.6304 57.1545 16.9231C63.2347 13.6884 66.1998 13.4189 68.9853 15.8749C71.651 18.241 73.0587 27.8852 73.2085 28.9635C73.2085 28.9934 73.2085 29.0234 73.2085 29.0533C73.2085 34.2049 70.3032 40.0154 65.7805 43.8791C64.253 45.1969 62.3062 45.9158 60.2994 45.8858ZM46.6716 18.8999C45.1441 21.8052 45.0243 24.6805 44.8146 28.9335L44.7547 30.3113C45.3537 35.2831 47.8397 39.8058 51.7034 43.0105C53.0213 44.1187 54.6985 44.7177 56.4357 44.6878H60.2994C62.0366 44.7177 63.7139 44.0888 65.0317 42.9806C69.2549 39.3565 72.0104 33.9054 72.0403 29.0833C71.651 26.208 70.1834 18.5105 68.2066 16.7734C65.9003 14.7367 63.2646 15.0362 57.7536 17.9714C54.3391 19.7984 50.3256 20.1279 46.6716 18.8999Z" fill="#244583"/>
<path d="M41.1903 71.4938C40.8609 71.4938 40.5913 71.2243 40.5913 70.8948V58.4352C40.5913 58.1057 40.8609 57.8362 41.1903 57.8362C41.5198 57.8362 41.7894 58.1057 41.7894 58.4352V70.8948C41.7894 71.2243 41.5198 71.4938 41.1903 71.4938Z" fill="#323C6B"/>
<path d="M42.568 39.4763H82.4332C83.9608 39.4763 85.1888 40.7043 85.1888 42.2318V70.2061C85.1888 71.7336 83.9608 72.9616 82.4332 72.9616H42.568C41.0405 72.9616 39.8125 71.7336 39.8125 70.2061V42.2318C39.8125 40.7043 41.0405 39.4763 42.568 39.4763Z" fill="#E1E6E9"/>
<path d="M82.4333 73.6805H42.5681C40.6512 73.6805 39.0938 72.123 39.0938 70.2062V42.2319C39.0938 40.315 40.6512 38.7576 42.5681 38.7576H82.4333C84.3502 38.7576 85.9077 40.315 85.9077 42.2319V70.2062C85.9376 72.123 84.3802 73.6805 82.4333 73.6805ZM42.5681 40.1952C41.43 40.1952 40.5314 41.1237 40.5314 42.2319V70.2062C40.5314 71.3443 41.43 72.2428 42.5681 72.2428H82.4333C83.5715 72.2428 84.47 71.3144 84.47 70.2062V42.2319C84.47 41.0938 83.5415 40.1952 82.4333 40.1952H42.5681Z" fill="#323C6B"/>
<path d="M77.7609 35.8522H76.8624C76.473 35.8522 76.1436 35.5227 76.1436 35.1334C76.1436 34.744 76.473 34.4146 76.8624 34.4146H77.7609C78.1503 34.4146 78.4798 34.744 78.4798 35.1334C78.5097 35.5227 78.1802 35.8522 77.7609 35.8522Z" fill="#EBECE9"/>
<path d="M89.4421 41.9922C89.0827 41.9922 88.7831 41.7227 88.7232 41.3633C88.274 38.2184 85.6083 35.8522 82.4335 35.8522H80.7562C80.3668 35.8522 80.0374 35.5228 80.0374 35.1334C80.0374 34.744 80.3668 34.4146 80.7562 34.4146H82.4335C86.3271 34.4445 89.6218 37.3198 90.1609 41.1836C90.2208 41.5729 89.9512 41.9323 89.5319 41.9922C89.5319 41.9922 89.472 41.9922 89.4421 41.9922Z" fill="#EBECE9"/>
<path d="M42.568 39.4763H82.4332C83.9608 39.4763 85.1888 40.7043 85.1888 42.2318V70.2061C85.1888 71.7336 83.9608 72.9616 82.4332 72.9616H42.568C41.0405 72.9616 39.8125 71.7336 39.8125 70.2061V42.2318C39.8125 40.7043 41.0405 39.4763 42.568 39.4763Z" fill="#EBECE9"/>
<path d="M85.1888 42.2317V70.206C85.1888 71.7335 83.9608 72.9615 82.4332 72.9615H82.0139C82.0439 72.9016 82.0439 72.8118 82.0439 72.7219V44.7476C82.0439 43.2201 80.8159 41.9921 79.2884 41.9921H39.8125C39.9323 40.5545 41.1304 39.4463 42.568 39.4463H82.4332C83.9608 39.4762 85.1888 40.7042 85.1888 42.2317Z" fill="#C1C1C1"/>
<path d="M69.7039 79.2812H55.2974L56.5254 72.9614H68.4759L69.7039 79.2812Z" fill="#C1C1C1"/>
<path d="M69.7041 80.0001H55.2975C55.0878 80.0001 54.8781 79.9102 54.7583 79.7305C54.6086 79.5508 54.5786 79.3411 54.6086 79.1315L55.8366 72.8118C55.8965 72.4823 56.196 72.2427 56.5554 72.2427H68.506C68.8654 72.2427 69.135 72.4823 69.2248 72.8118L70.4528 79.1315C70.4828 79.3411 70.4528 79.5508 70.3031 79.7305C70.1533 79.9102 69.9437 80.0001 69.7041 80.0001ZM56.1661 78.5624H68.8355L67.877 73.7103H57.1245L56.1661 78.5624Z" fill="#244583"/>
<path d="M71.7707 80.0002H53.2608C52.8715 80.0002 52.542 79.6707 52.542 79.2813C52.542 78.892 52.8715 78.5625 53.2608 78.5625H71.7707C72.1601 78.5625 72.4896 78.892 72.4896 79.2813C72.4896 79.6707 72.1601 80.0002 71.7707 80.0002Z" fill="#244583"/>
<path d="M82.4333 73.6805H42.5681C40.6512 73.6805 39.0938 72.123 39.0938 70.2062V42.2319C39.0938 40.315 40.6512 38.7576 42.5681 38.7576H82.4333C84.3502 38.7576 85.9077 40.315 85.9077 42.2319V70.2062C85.9376 72.123 84.3802 73.6805 82.4333 73.6805ZM42.5681 40.1952C41.43 40.1952 40.5314 41.1237 40.5314 42.2319V70.2062C40.5314 71.3443 41.43 72.2428 42.5681 72.2428H82.4333C83.5715 72.2428 84.47 71.3144 84.47 70.2062V42.2319C84.47 41.0938 83.5415 40.1952 82.4333 40.1952H42.5681Z" fill="#244583"/>
</svg>

<svg xmlns="http://www.w3.org/2000/svg" xmlns:xlink="http://www.w3.org/1999/xlink" width="120" height="80" fill="none" xmlns:v="https://vecta.io/nano"><path d="M77.461 47.294c-2.366-1.288-5.032-1.947-7.727-1.947H47.181c-9.704.03-17.581 8.506-17.581 18.989v7.218h41.573l6.29-24.26z" fill="#9fefde"/><g fill="#323c6b"><use xlink:href="#B"/><use xlink:href="#B" y="5.72"/><use xlink:href="#B" y="11.441"/></g><path d="M71.172 72.153H29.599a.6.6 0 0 1-.599-.599v-7.218c0-10.782 8.147-19.558 18.181-19.558h22.553c2.785 0 5.541.689 7.997 2.007.24.12.359.419.299.689l-6.32 24.26a.55.55 0 0 1-.539.419zm-40.973-1.198h40.494l6.08-23.332c-2.187-1.078-4.583-1.647-7.039-1.647H47.181c-9.375 0-16.982 8.237-16.982 18.36v6.619z" fill="#244583"/><path d="M44.575 25.609s-3.145-.269-4.193 1.857 1.527 7.578 4.672 7.308" fill="#ebece9"/><path d="M44.814 35.373c-1.587-.15-3.025-1.048-3.804-2.456-1.168-1.677-1.917-4.193-1.168-5.751 1.228-2.486 4.643-2.216 4.792-2.186.33.03.569.329.539.659s-.33.569-.659.539c-.03 0-2.755-.21-3.594 1.527-.479.959.03 2.995 1.078 4.523.599 1.108 1.737 1.857 2.995 1.917.329-.03.629.21.659.539s-.21.629-.539.659c-.09.03-.18.03-.3.03z" fill="#244583"/><path d="M71.95 25.549s3.145-.27 4.193 1.857-1.528 7.578-4.672 7.308" fill="#ebece9"/><path d="M71.681 35.343h-.27c-.329-.03-.569-.33-.539-.659s.329-.569.659-.539c1.258-.06 2.396-.779 2.995-1.917 1.078-1.557 1.557-3.594 1.078-4.523-.869-1.737-3.564-1.527-3.594-1.527-.329.03-.629-.21-.659-.539s.21-.629.539-.659c.15 0 3.564-.27 4.792 2.186.749 1.527-.03 4.043-1.168 5.751a5.07 5.07 0 0 1-3.834 2.426z" fill="#244583"/><path d="M67.008 40.285l.809 5.092-9.375 5.122-9.375-5.122.779-4.882 17.162-.21z" fill="#fcd462"/><path d="M58.442 51.097c-.09 0-.21-.03-.3-.06l-9.375-5.122a.7.7 0 0 1-.299-.36c-.03-.09-.03-.18-.03-.269l.779-4.882c.06-.3.3-.509.599-.509l17.132-.21c.299 0 .569.21.599.509l.809 5.092v.18a.68.68 0 0 1-.299.449l-9.375 5.122c-.03.03-.12.06-.24.06zm-8.686-6.05l8.716 4.762 8.716-4.762-.659-4.163-16.114.18-.659 3.983z" fill="#323c6b"/><path d="M37.836 24.291c-.27 0-.509-.18-.569-.449a28.36 28.36 0 0 1-1.078-7.428.68.68 0 0 1 .599-.659c.3-.03.569.21.599.509v.03.12c.03 2.396.389 4.792 1.048 7.128a.6.6 0 0 1-.419.749h-.18zm-.719-9.944h-.12c-.329-.06-.539-.359-.479-.689l.03-.24c.06-.299.09-.599.18-.869.06-.329.389-.539.719-.449.33.06.539.389.449.719l-.15.809-.06.24c-.03.27-.3.479-.569.479zm35.492 14.736c0 5.092-2.905 10.693-7.218 14.376a7.84 7.84 0 0 1-5.122 1.827h-3.834c-1.887 0-3.684-.629-5.122-1.827-3.983-3.295-6.529-7.997-7.158-13.118v-.06c.24-5.242.21-8.626 2.246-12.13a13.44 13.44 0 0 0 11.052-.659c5.721-3.055 8.566-3.385 11.142-1.108 2.576 2.246 4.014 12.699 4.014 12.699z" fill="#ebece9"/><g fill="#c1c1c1"><path d="M72.609 29.083c0 5.092-2.905 10.693-7.218 14.376a7.97 7.97 0 0 1-5.122 1.857h-3.834c-1.528 0-2.995-.419-4.283-1.228.449.06.869.12 1.318.12h3.864c1.887 0 3.684-.629 5.122-1.857 4.313-3.684 7.218-9.285 7.218-14.376 0 0-1.438-10.453-4.014-12.729a2.26 2.26 0 0 0-.419-.329c1.258.06 2.456.569 3.385 1.468 2.546 2.246 3.983 12.699 3.983 12.699z"/><path d="M72.609 29.083s-1.438-10.453-4.014-12.729c-2.546-2.276-5.421-1.947-11.142 1.108-3.414 1.797-7.458 2.037-11.052.659-2.037 3.504-1.977 6.889-2.246 12.13v.06c-1.767-4.313-3.774-9.045-3.774-14.167.12-2.516.809-5.002 1.977-7.248 0 0 0-.03.06-.09a3.65 3.65 0 0 1 4.852-1.438s5.871-9.554 18.21-5.93c.03 0 .06.03.09.03a14.81 14.81 0 0 1 10.004 12.16c.719 4.433-.15 11.621-2.965 15.455z"/></g><g fill="#244583"><path d="M44.156 30.91c-.24 0-.449-.12-.539-.329l-.18-.449c-1.707-4.193-3.654-8.925-3.654-13.987.12-2.636.839-5.182 2.037-7.518l.06-.12c1.018-1.827 3.205-2.636 5.152-1.887 1.348-1.857 7.488-9.045 18.6-5.781.03 0 .18.06.18.09a15.29 15.29 0 0 1 10.333 12.609c.779 4.732-.18 11.98-3.055 15.904-.18.27-.569.329-.839.12-.12-.09-.21-.24-.24-.419-.389-2.845-1.857-10.603-3.834-12.37-2.306-2.037-4.942-1.737-10.453 1.198-3.414 1.797-7.428 2.127-11.082.899-1.527 2.905-1.677 5.781-1.857 10.063l-.06 1.378c0 .3-.21.539-.509.599h-.06zm1.348-23.362c-1.078.06-2.067.629-2.606 1.587-1.138 2.186-1.797 4.583-1.947 7.068.18 3.924 1.078 7.817 2.696 11.411.18-3.834.479-6.739 2.187-9.734.15-.27.479-.359.749-.24a12.96 12.96 0 0 0 10.543-.659c5.99-3.205 9.075-3.474 11.801-1.048 2.127 1.857 3.445 8.356 3.954 11.471 1.947-4.283 2.666-9.015 2.007-13.688-.689-5.421-4.433-9.974-9.614-11.681-.03 0-.12-.06-.15-.06C53.5-1.467 47.81 7.578 47.75 7.668c-.15.27-.479.359-.749.24a3.34 3.34 0 0 0-1.498-.359z"/><path d="M60.299 45.886h-3.864c-2.007 0-3.954-.689-5.511-1.977a20.77 20.77 0 0 1-7.368-13.538v-.15l.06-1.378c.21-4.493.329-7.727 2.246-11.022.15-.27.479-.359.749-.24a12.96 12.96 0 0 0 10.543-.659c6.08-3.235 9.045-3.504 11.831-1.048 2.666 2.366 4.073 12.01 4.223 13.089v.09c0 5.152-2.905 10.962-7.428 14.826-1.528 1.318-3.474 2.037-5.481 2.007zM46.672 18.9c-1.527 2.905-1.647 5.781-1.857 10.034l-.06 1.378c.599 4.972 3.085 9.494 6.949 12.699 1.318 1.108 2.995 1.707 4.732 1.677h3.864c1.737.03 3.415-.599 4.732-1.707 4.223-3.624 6.979-9.075 7.009-13.897-.389-2.875-1.857-10.573-3.834-12.31-2.306-2.037-4.942-1.737-10.453 1.198a14.03 14.03 0 0 1-11.082.928z"/></g><path d="M41.19 71.494a.6.6 0 0 1-.599-.599v-12.46a.6.6 0 0 1 .599-.599.6.6 0 0 1 .599.599v12.46a.6.6 0 0 1-.599.599z" fill="#323c6b"/><use xlink:href="#C" fill="#e1e6e9"/><use xlink:href="#D" fill="#323c6b"/><g fill="#ebece9"><path d="M77.761 35.852h-.899a.73.73 0 0 1-.719-.719.73.73 0 0 1 .719-.719h.899a.73.73 0 0 1 .719.719c.03.389-.3.719-.719.719zm11.681 6.14c-.359 0-.659-.269-.719-.629-.449-3.145-3.115-5.511-6.29-5.511h-1.677a.73.73 0 0 1-.719-.719.73.73 0 0 1 .719-.719h1.677a7.86 7.86 0 0 1 7.727 6.769c.06.389-.21.749-.629.809h-.09z"/><use xlink:href="#C"/></g><path d="M85.189 42.232v27.974a2.75 2.75 0 0 1-2.756 2.755h-.419c.03-.06.03-.15.03-.24V44.748a2.75 2.75 0 0 0-2.755-2.755H39.813c.12-1.438 1.318-2.546 2.755-2.546h39.865c1.528.03 2.756 1.258 2.756 2.785zM69.704 79.281H55.297l1.228-6.32h11.95l1.228 6.32z" fill="#c1c1c1"/><g fill="#244583"><path d="M69.704 80H55.298a.64.64 0 0 1-.539-.27c-.15-.18-.18-.389-.15-.599l1.228-6.32c.06-.33.359-.569.719-.569h11.951c.359 0 .629.24.719.569l1.228 6.32c.03.21 0 .419-.15.599s-.359.27-.599.27zm-13.538-1.438h12.669l-.959-4.852H57.125l-.958 4.852z"/><path d="M71.771 80h-18.51a.73.73 0 0 1-.719-.719.73.73 0 0 1 .719-.719h18.51a.73.73 0 0 1 .719.719.73.73 0 0 1-.719.719z"/><use xlink:href="#D"/></g><defs ><path id="B" d="M58.083 57.148a1.17 1.17 0 0 0 1.168-1.168 1.17 1.17 0 0 0-1.168-1.168 1.17 1.17 0 0 0-1.168 1.168 1.17 1.17 0 0 0 1.168 1.168z"/><path id="C" d="M42.568 39.476h39.865a2.75 2.75 0 0 1 2.756 2.755v27.974a2.75 2.75 0 0 1-2.756 2.755H42.568a2.75 2.75 0 0 1-2.755-2.755V42.232a2.75 2.75 0 0 1 2.755-2.755z"/><path id="D" d="M82.433 73.681H42.568a3.48 3.48 0 0 1-3.474-3.474V42.232a3.48 3.48 0 0 1 3.474-3.474h39.865a3.48 3.48 0 0 1 3.474 3.474v27.974c.03 1.917-1.528 3.474-3.474 3.474zM42.568 40.195a2.04 2.04 0 0 0-2.037 2.037v27.974a2.02 2.02 0 0 0 2.037 2.037h39.865a2.04 2.04 0 0 0 2.037-2.037V42.232a2.04 2.04 0 0 0-2.037-2.037H42.568z"/></defs></svg>
